svg/icon/strat.svg

<svg height="32" viewBox="0 0 32 32" width="32" xmlns="http://www.w3.org/2000/svg" xmlns:xlink="http://www.w3.org/1999/xlink"><defs><linearGradient id="a" x1="50%" x2="50%" y1="0%" y2="100%"><stop offset="0" stop-color="#fff" stop-opacity=".5"/><stop offset="1" stop-opacity=".5"/></linearGradient><circle id="b" cx="16" cy="15" r="15"/><filter id="c" height="111.7%" width="111.7%" x="-5.8%" y="-4.2%"><feOffset dy=".5" in="SourceAlpha" result="shadowOffsetOuter1"/><feGaussianBlur in="shadowOffsetOuter1" result="shadowBlurOuter1" stdDeviation=".5"/><feComposite in="shadowBlurOuter1" in2="SourceAlpha" operator="out" result="shadowBlurOuter1"/><feColorMatrix in="shadowBlurOuter1" values="0 0 0 0 0   0 0 0 0 0   0 0 0 0 0  0 0 0 0.199473505 0"/></filter><path id="d" d="m16.0528756 17.3733047 9.5937779-5.5841943-9.5937604-5.68399446-9.49777842 5.68400476zm-10.00580127-2.9196465c0 .2705901.14321279.5206614.37576993.6561512l9.62669764 5.6086002 9.7850092-5.7885009c.1130364-.0668688.2417509-.1021247.3728432-.1021247.4065816 0 .736181.3319638.736181.741462v2.6263107c0 .2618729-.1371539.5043245-.3608264.637845l-10.1566636 6.0629813c-.2299251.1372529-.5156486.1382125-.7464774.002507l-10.41993174-6.125934c-.2496923-.1467955-.33395425-.4696643-.18820435-.7211478.14574991-.2514834.46631915-.3363498.71601144-.1895544l10.26204505 6.0331115 9.8470578-5.8781632v-1.9010508l-9.4730066 5.6039301c-.2286703.1352741-.5119067.1362211-.7414637.0024791l-9.78351985-5.6999661c-.55607194-.3239725-.89851087-.9219228-.89851087-1.5689362v-2.473969c0-.0331373.00252273-.0656811.00738531-.0974472.04654731-.3040832.30750388-.5369088.62245248-.5369088.11158368 0 .22116435.0298564.31753008.0865144l.60766173.3572731-.76412303.4572942c-.24855114.148747-.56976605.0663944-.71745359-.1839398-.03376912-.0572395-.05554196-.1183053-.06606767-.1802331-.03550797-.2089105.05697807-.4276315.24869737-.5423671l10.41987344-6.2358383c.2307896-.13811744.5179297-.13875452.7493211-.00166251l10.2115987 6.05004381c.1095427.0649005.200538.1572577.2641299.2680833.2034408.3545486.0829909.8080713-.2690324 1.0129715l-10.2116058 5.9438098c-.2289082.1332393-.5111764.1326184-.7395046-.0016266l-10.26133038-6.0331227c.06382453.0375255.13640153.0572999.21030515.0572999.18729757 0 .34576482-.1243228.398489-.2955038.01212948-.0393811.01866246-.0812422.01866246-.1246401z"/><filter id="e" height="117.5%" width="115.9%" x="-8%" y="-6.2%"><feOffset dy=".5" in="SourceAlpha" result="shadowOffsetOuter1"/><feGaussianBlur in="shadowOffsetOuter1" result="shadowBlurOuter1" stdDeviation=".5"/><feColorMatrix in="shadowBlurOuter1" values="0 0 0 0 0   0 0 0 0 0   0 0 0 0 0  0 0 0 0.204257246 0"/></filter></defs><g fill="none" fill-rule="evenodd"><use fill="#000" filter="url(#c)" xlink:href="#b"/><use fill="#1387c9" xlink:href="#b"/><use fill="url(#a)" xlink:href="#b"/><circle cx="16" cy="15" r="14.5" stroke="#000" stroke-opacity=".097"/><g fill-rule="nonzero"><use fill="#000" filter="url(#e)" xlink:href="#d"/><use fill="#fff" fill-rule="evenodd" xlink:href="#d"/></g></g></svg>

<svg xmlns="http://www.w3.org/2000/svg" xmlns:xlink="http://www.w3.org/1999/xlink" width="32" height="32" viewBox="0 0 32 32">
  <defs>
    <linearGradient id="strat-c" x1="50%" x2="50%" y1="0%" y2="100%">
      <stop offset="0%" stop-color="#FFF" stop-opacity=".5"/>
      <stop offset="100%" stop-opacity=".5"/>
    </linearGradient>
    <circle id="strat-b" cx="16" cy="15" r="15"/>
    <filter id="strat-a" width="111.7%" height="111.7%" x="-5.8%" y="-4.2%" filterUnits="objectBoundingBox">
      <feOffset dy=".5" in="SourceAlpha" result="shadowOffsetOuter1"/>
      <feGaussianBlur in="shadowOffsetOuter1" result="shadowBlurOuter1" stdDeviation=".5"/>
      <feComposite in="shadowBlurOuter1" in2="SourceAlpha" operator="out" result="shadowBlurOuter1"/>
      <feColorMatrix in="shadowBlurOuter1" values="0 0 0 0 0   0 0 0 0 0   0 0 0 0 0  0 0 0 0.199473505 0"/>
    </filter>
    <path id="strat-e" d="M16.0528756,17.3733047 L25.6466535,11.7891104 L16.0528931,6.10511594 L6.55511468,11.7891207 L16.0528756,17.3733047 Z M6.04707433,14.4536582 C6.04707433,14.7242483 6.19028712,14.9743196 6.42284426,15.1098094 L16.0495419,20.7184096 L25.8345511,14.9299087 C25.9475875,14.8630399 26.076302,14.827784 26.2073943,14.827784 C26.6139759,14.827784 26.9435753,15.1597478 26.9435753,15.569246 L26.9435753,18.1955567 C26.9435753,18.4574296 26.8064214,18.6998812 26.5827489,18.8334017 L16.4260853,24.896383 C16.1961602,25.0336359 15.9104367,25.0345955 15.6796079,24.89889 L5.25967616,18.772956 C5.00998386,18.6261605 4.92572191,18.3032917 5.07147181,18.0518082 C5.21722172,17.8003248 5.53779096,17.7154584 5.78748325,17.8622538 L16.0495283,23.8953653 L25.8965861,18.0172021 L25.8965861,16.1161513 L16.4235795,21.7200814 C16.1949092,21.8553555 15.9116728,21.8563025 15.6821158,21.7225605 L5.89859595,16.0225944 C5.34252401,15.6986219 5.00008508,15.1006716 5.00008508,14.4536582 L5.00008508,11.9796892 C5.00008508,11.9465519 5.00260781,11.9140081 5.00747039,11.882242 C5.0540177,11.5781588 5.31497427,11.3453332 5.62992287,11.3453332 C5.74150655,11.3453332 5.85108722,11.3751896 5.94745295,11.4318476 L6.55511468,11.7891207 L5.79099165,12.2464149 C5.54244051,12.3951619 5.2212256,12.3128093 5.07353806,12.0624751 C5.03976894,12.0052356 5.0179961,11.9441698 5.00747039,11.882242 C4.97196242,11.6733315 5.06444846,11.4546105 5.25616776,11.3398749 L15.6760412,5.1040366 C15.9068308,4.96591916 16.1939709,4.96528208 16.4253623,5.10237409 L26.636961,11.1524179 C26.7465037,11.2173184 26.837499,11.3096756 26.9010909,11.4205012 C27.1045317,11.7750498 26.9840818,12.2285725 26.6320585,12.4334727 L16.4204527,18.3772825 C16.1915445,18.5105218 15.9092763,18.5099009 15.6809481,18.3756559 L5.41961772,12.3425332 C5.48344225,12.3800587 5.55601925,12.3998331 5.62992287,12.3998331 C5.81722044,12.3998331 5.97568769,12.2755103 6.02841187,12.1043293 C6.04054135,12.0649482 6.04707433,12.0230871 6.04707433,11.9796892 L6.04707433,14.4536582 Z"/>
    <filter id="strat-d" width="115.9%" height="117.5%" x="-8%" y="-6.2%" filterUnits="objectBoundingBox">
      <feOffset dy=".5" in="SourceAlpha" result="shadowOffsetOuter1"/>
      <feGaussianBlur in="shadowOffsetOuter1" result="shadowBlurOuter1" stdDeviation=".5"/>
      <feColorMatrix in="shadowBlurOuter1" values="0 0 0 0 0   0 0 0 0 0   0 0 0 0 0  0 0 0 0.204257246 0"/>
    </filter>
  </defs>
  <g fill="none" fill-rule="evenodd">
    <use fill="#000" filter="url(#strat-a)" xlink:href="#strat-b"/>
    <use fill="#1387C9" xlink:href="#strat-b"/>
    <use fill="url(#strat-c)" style="mix-blend-mode:soft-light" xlink:href="#strat-b"/>
    <circle cx="16" cy="15" r="14.5" stroke="#000" stroke-opacity=".097"/>
    <g fill-rule="nonzero">
      <use fill="#000" filter="url(#strat-d)" xlink:href="#strat-e"/>
      <use fill="#FFF" fill-rule="evenodd" xlink:href="#strat-e"/>
    </g>
  </g>
</svg>
